src/telerik-icons/solid/dribbble.svg

<?xml version="1.0" encoding="utf-8"?>
<svg xmlns="http://www.w3.org/2000/svg" width="512" height="512" viewBox="0 0 512 512">
  <path d="M256 32C132.469 32 32 132.469 32 256c0 123.5 100.469 224 224 224 123.5 0 224-100.5 224-224 0-123.531-100.5-224-224-224zm148.094 103.281c26.625 32.562 42.781 74.031 43.188 119.188-6.312-1.312-69.562-14.156-133.219-6.156a850.738 850.738 0 0 0-4.125-9.875c-3.969-9.312-8.25-18.594-12.688-27.719 70.75-28.875 102.812-69.969 106.844-75.438zM256 64.969c48.594 0 93.031 18.219 126.812 48.188-3.438 4.906-32.25 43.625-100.281 69.125-31.344-57.594-66.094-104.938-71.375-112A190.999 190.999 0 0 1 256 64.969zm-81.344 18.156c5.031 6.938 39.219 54.312 70.938 110.656-89.5 23.781-168.344 23.438-176.906 23.312 12.406-59.374 52.437-108.718 105.968-133.968zm-110 173.156c0-1.969.031-3.906.094-5.844 8.375.156 101.094 1.375 196.657-27.219 5.469 10.719 10.688 21.594 15.5 32.469a192.95 192.95 0 0 0-7.531 2.281c-98.688 31.875-151.188 118.812-155.531 126.25-30.564-33.937-49.189-78.812-49.189-127.937zM256 447.594c-44.25 0-85-15.094-117.438-40.375 3.438-7.031 42.156-81.875 150.094-119.5.406-.125.812-.281 1.25-.406 26.875 69.812 37.969 128.312 40.812 145.094-22.968 9.781-48.218 15.187-74.718 15.187zm106.875-32.719c-1.938-11.625-12.125-67.625-37.156-136.406 59.969-9.594 112.625 6.125 119.188 8.188-8.532 53.218-39.095 99.218-82.032 128.218z"/>
</svg>

<?xml version="1.0" encoding="utf-8"?>
<!-- Generator: Adobe Illustrator 20.1.0, SVG Export Plug-In . SVG Version: 6.00 Build 0)  -->
<svg xmlns="http://www.w3.org/2000/svg" width="512" height="512" viewBox="0 0 512 512">
<path d="M256,32C132.469,32,32,132.469,32,256c0,123.5,100.469,224,224,224c123.5,0,224-100.5,224-224C480,132.469,379.5,32,256,32z
	 M404.094,135.281c26.625,32.562,42.781,74.031,43.188,119.188c-6.312-1.312-69.562-14.156-133.219-6.156
	c-1.344-3.281-2.719-6.562-4.125-9.875c-3.969-9.312-8.25-18.594-12.688-27.719C368,181.844,400.062,140.75,404.094,135.281z
	 M256,64.969c48.594,0,93.031,18.219,126.812,48.188c-3.438,4.906-32.25,43.625-100.281,69.125
	c-31.344-57.594-66.094-104.938-71.375-112C225.531,66.812,240.562,64.969,256,64.969z M174.656,83.125
	c5.031,6.938,39.219,54.312,70.938,110.656c-89.5,23.781-168.344,23.438-176.906,23.312
	C81.094,157.719,121.125,108.375,174.656,83.125z M64.656,256.281c0-1.969,0.031-3.906,0.094-5.844
	c8.375,0.156,101.094,1.375,196.657-27.219c5.469,10.719,10.688,21.594,15.5,32.469c-2.531,0.719-5.062,1.469-7.531,2.281
	c-98.688,31.875-151.188,118.812-155.531,126.25C83.281,350.281,64.656,305.406,64.656,256.281z M256,447.594
	c-44.25,0-85-15.094-117.438-40.375c3.438-7.031,42.156-81.875,150.094-119.5c0.406-0.125,0.812-0.281,1.25-0.406
	c26.875,69.812,37.969,128.312,40.812,145.094C307.75,442.188,282.5,447.594,256,447.594z M362.875,414.875
	c-1.938-11.625-12.125-67.625-37.156-136.406c59.969-9.594,112.625,6.125,119.188,8.188
	C436.375,339.875,405.812,385.875,362.875,414.875z" />
</svg>
